X: 34995
T: Rogers O'Neill
R: hornpipe
M: 4/4
K: Gmajor
|:BA|GFGA G2 (3DEF|GB (3def g2 (3def|gdBG cefe|(3ded (3cBA GFEF|
GFGA G2 (3DEF|GB (3def g2 (3fga|gdBg ecAF|GAGF G2:|
|:(3def|gdBd ecAF|GBDB GBDB|AcDc AcDc|BdGd Bdfa|
gdBd ecAF|(3GAB DB G2 (3GAB|cedc BAGF|(3AcA GF G2:|
|:(BA)|GFGA BDFA|BGAB dGBd|ecfd gece|(3ded (3cBA GFEF|
G2(3AcA BDGB|AGAB cdfa|gfge dcBA|(3GAG FA G2:|
|:Bc|dedB GABG|ADFA GFGA|BGBd c2AG|FdAF DcBc|
dedB GABG|(3AcA AB cdfa|gfge dcBA|G2GF G2:|

